X:1
T:The Texas Cowboy
M:2/4
L:1/8
K:D
 A| F3/2 F/2 FF| A F2F/2-F/2| D3/2 E/2 DB,| D2 zA/2-A/2| A3/2 A/2 FA|\
 B d2 B| G3/2 G/2 Bd| A2| zA/2-A/2| A3/2 A/2 FA| Bd d B/2B/2| GG Bd|\
 A3A/2-A/2| A3/2 A/2 FE| FA AF| DF EF| D3||

